X:83
T:Temple Rakes, The
M:12/8
L:1/8
B:Thompson's Compleat Collection of 200 Favourite Country Dances, vol. 1 (London, 1757)
Z:Transcribed and edited by Fynnian Titford-Mock, 2007
Z:abc's:AK/Fiddler's Companion
K:G
G3 BGB dBd g3|A3 cAc ece a3|G2 BGB dBd gab|afd ge^c d3 D3:|
|:d3 =f3 egB c3|e3 g3 fa^c d3|A3 =c3 BdF Ggf|dBG cAF G3 G,3:|

